icons/lines/ram-two.svg

<svg xmlns="http://www.w3.org/2000/svg" width="24" height="24" viewBox="0 0 24 24" fill="none" stroke="currentColor" stroke-width="2" stroke-linecap="round" stroke-linejoin="round" >
  <path d="M3.5 7V17C3.5 20 4.97 22 8.5 22H15.5C18.97 22 20.5 20 20.5 17V15.83C20.5 15.3 20.29 14.79 19.91 14.42L19.08 13.59C18.7 13.21 18.49 12.71 18.49 12.18V10C18.49 9.45 18.94 9 19.49 9C20.04 9 20.49 8.55 20.49 8V7C20.49 4 18.96 2 15.49 2H8.49C4.97 2 3.5 4 3.5 7Z"/>
  <path d="M7.99047 21.97L7.98047 19C7.98047 17.89 8.87047 17 9.98047 17H13.9905C15.0905 17 15.9805 17.89 15.9905 18.99L16.0205 21.98"/>
  <path d="M8.94043 4.95006L8.99043 2.06006"/>
  <path d="M11.9404 4.95006L11.9904 2.06006"/>
  <path d="M14.9404 4.92004L14.9904 2.04004"/>
  </svg>

<svg xmlns="http://www.w3.org/2000/svg" width="24" height="24" viewBox="0 0 24 24" fill="none" stroke="currentColor" stroke-width="2" stroke-linecap="round" stroke-linejoin="round">
  <path d="m11.94 4.95.05-2.89" />
  <path d="m14.94 4.92.05-2.88" />
  <path d="M3.5 17c0 3 1.47 5 5 5h7c3.47 0 5-2 5-5v-1.17a2 2 0 0 0-.59-1.41l-.83-.83a2 2 0 0 1-.59-1.41V10a1 1 0 0 1 1-1 1 1 0 0 0 1-1V7c0-3-1.53-5-5-5h-7C4.97 2 3.5 4 3.5 7z" />
  <path d="M7.99 21.97 7.98 19a2 2 0 0 1 2-2h4.01a2 2 0 0 1 2 1.99l.03 2.99" />
  <path d="m8.94 4.95.05-2.89" />
</svg>
